icons/bash.svg

<?xml version="1.0" encoding="UTF-8"?>
<svg width="224px" height="256px" viewBox="0 0 224 256" version="1.1" xmlns="http://www.w3.org/2000/svg" xmlns:xlink="http://www.w3.org/1999/xlink" preserveAspectRatio="xMidYMid">
    <g>
				<path d="M207.953496,52.161792 L127.317154,4.28699154 C117.73318,-1.42899718 105.786545,-1.42899718 96.2025707,4.28699154 L15.5500822,52.161792 C5.848665,58.0143618 -0.0579442252,68.5395346 0.000428679482,79.8694336 L0.000428679482,175.602888 C-0.0522462707,186.927041 5.85362572,197.444768 15.5500822,203.294383 L96.186424,251.153037 C105.771373,256.86549 117.716059,256.86549 127.301008,251.153037 L207.937349,203.294383 C217.644962,197.44581 223.55812,186.9199 223.50315,175.586741 L223.50315,79.8694336 C223.561523,68.5395346 217.654913,58.0143618 207.953496,52.161792 Z" fill="#FFFFFF"></path>
				<path d="M208.411532,52.276683 L127.597582,4.29643402 C117.992498,-1.43214467 106.019549,-1.43214467 96.4144654,4.29643402 L15.5843327,52.276683 C5.86154721,58.1421436 -0.0580718526,68.6904991 0.000429623687,80.0453532 L0.000429623687,175.989669 C-0.0523613478,187.338765 5.86651886,197.879657 15.5843327,203.742157 L96.3982832,251.706224 C106.004343,257.431259 117.975339,257.431259 127.581399,251.706224 L208.39535,203.742157 C218.124345,197.880703 224.050527,187.331607 223.995435,175.973487 L223.995435,80.0453532 C224.053937,68.6904991 218.134318,58.1421436 208.411532,52.276683 Z M99.2301697,246.803014 L18.4162192,198.838948 C10.4300926,193.999639 5.56585934,185.327547 5.59969728,175.989669 L5.59969728,80.0453532 C5.56264048,70.7066408 10.4277023,62.033071 18.4162192,57.1960744 L99.2301697,9.21582548 C107.095348,4.52357839 116.900517,4.52357839 124.765695,9.21582548 L205.514917,57.1960744 C212.17156,61.2279088 216.712503,67.9889997 217.926671,75.6761569 C215.240424,69.9638372 209.20446,68.3941629 202.1652,72.4397151 L125.768992,119.756494 C116.237671,125.306991 109.214593,131.569506 109.19841,143.058874 L109.19841,237.271693 C109.19841,244.149132 111.965568,248.59924 116.237671,249.909999 C114.838668,250.166379 113.420175,250.301731 111.997932,250.314554 C107.503971,250.311263 103.093756,249.098314 99.2301697,246.803014 Z" fill="#2F3A3E"></path>
				<path d="M187.007319,185.05984 L166.920894,197.072944 C166.382945,197.289147 166.022425,197.801466 166.000535,198.380822 L166.000535,203.660774 C166.000535,204.30664 166.436494,204.564987 166.969334,204.2582 L187.362545,191.857577 C187.861962,191.483188 188.100868,190.854486 187.976118,190.242913 L187.976118,185.608826 C187.959971,185.0114 187.491719,184.753054 187.007319,185.05984 Z" fill="#3AB14A"></path>
				<path d="M144.262952,140.831868 C144.908817,140.508935 145.441657,140.831868 145.457803,141.752226 L145.52239,148.75987 C147.937868,147.662506 150.63266,147.335523 153.240486,147.823365 C153.741032,147.952538 153.950938,148.630697 153.757179,149.438029 L152.223247,155.5899 C152.106964,156.054178 151.867023,156.478259 151.528942,156.817045 C151.410206,156.934194 151.274035,157.032237 151.125276,157.107685 C150.94275,157.206405 150.732219,157.240546 150.52785,157.204565 C147.984993,156.641458 145.323113,157.068744 143.084247,158.399417 C139.810579,159.87411 137.670697,163.093345 137.578241,166.682645 C137.578241,169.911974 139.192905,170.800039 144.828084,170.896919 C152.271687,171.026092 155.501016,174.271568 155.581749,181.779758 C155.404525,189.616874 151.790949,196.979831 145.700003,201.914623 L145.829176,208.793094 C145.817697,209.647405 145.37394,210.437656 144.650471,210.892157 L140.581517,213.233421 C139.935651,213.556354 139.402812,213.233421 139.386665,212.329209 L139.386665,205.563765 C135.89899,207.016963 132.362875,207.356042 130.102345,206.45183 C129.682532,206.290364 129.488772,205.660645 129.666385,204.934046 L131.13573,198.717587 C131.24746,198.225629 131.499922,197.776809 131.862329,197.425856 C131.977267,197.315759 132.107853,197.223261 132.249848,197.151363 C132.460373,197.056728 132.701336,197.056728 132.911861,197.151363 C135.790274,197.931772 138.860474,197.542919 141.453436,196.069538 C145.195213,194.264929 147.626918,190.533412 147.766774,186.381551 C147.766774,182.893876 145.845323,181.440678 141.308116,181.408385 C135.446884,181.408385 130.005465,180.27812 129.892438,171.720398 C130.027305,164.244122 133.498017,157.21978 139.354372,152.570478 L139.063732,145.530541 C139.061125,144.663931 139.507025,143.857647 140.242437,143.399184 L144.262952,140.831868 Z" fill="#FFFFFF"></path>
    </g>
</svg>

<svg xmlns="http://www.w3.org/2000/svg" viewBox="0 0 223.996 256">
  <path fill="#fff" d="M207.953 52.162 127.317 4.287a30.372 30.372 0 0 0-31.114 0L15.55 52.162A32.165 32.165 0 0 0 0 79.869v95.734a32.165 32.165 0 0 0 15.55 27.691l80.636 47.859a30.388 30.388 0 0 0 31.115 0l80.636-47.859a32.165 32.165 0 0 0 15.566-27.707V79.869a32.165 32.165 0 0 0-15.55-27.707z"/>
  <path fill="#2f3a3e" d="m208.412 52.277-80.814-47.98a30.439 30.439 0 0 0-31.184 0l-80.83 47.98A32.236 32.236 0 0 0 0 80.045v95.945a32.236 32.236 0 0 0 15.584 27.752l80.814 47.964a30.455 30.455 0 0 0 31.183 0l80.814-47.964a32.236 32.236 0 0 0 15.6-27.769V80.045a32.236 32.236 0 0 0-15.583-27.768zM99.23 246.803l-80.814-47.964A26.604 26.604 0 0 1 5.6 175.989V80.046a26.588 26.588 0 0 1 12.816-22.849L99.23 9.216a24.92 24.92 0 0 1 25.536 0l80.749 47.98a26.426 26.426 0 0 1 12.412 18.48c-2.687-5.712-8.723-7.282-15.762-3.236l-76.396 47.316c-9.531 5.551-16.554 11.814-16.57 23.303v94.213c0 6.877 2.767 11.327 7.039 12.638a24.758 24.758 0 0 1-4.24.405 25.031 25.031 0 0 1-12.768-3.512z"/>
  <path fill="#3ab14a" d="m187.007 185.06-20.086 12.013a1.47 1.47 0 0 0-.92 1.308v5.28c0 .646.435.904.968.597l20.394-12.4c.499-.375.738-1.004.613-1.615v-4.634c-.016-.598-.484-.856-.969-.55z"/>
  <path fill="#fff" d="M144.263 140.832c.646-.323 1.179 0 1.195.92l.064 7.008a12.917 12.917 0 0 1 7.719-.937c.5.13.71.808.516 1.615l-1.534 6.152a2.648 2.648 0 0 1-.694 1.227 1.614 1.614 0 0 1-.404.29.92.92 0 0 1-.597.098 10.237 10.237 0 0 0-7.444 1.194 9.349 9.349 0 0 0-5.506 8.284c0 3.229 1.615 4.117 7.25 4.214 7.444.13 10.673 3.375 10.754 10.883a26.69 26.69 0 0 1-9.882 20.135l.13 6.878a2.519 2.519 0 0 1-1.18 2.1l-4.068 2.34c-.646.323-1.18 0-1.195-.904v-6.765c-3.488 1.453-7.024 1.792-9.285.888-.42-.162-.613-.791-.436-1.518l1.47-6.216a2.6 2.6 0 0 1 .726-1.292c.115-.11.246-.203.388-.275a.808.808 0 0 1 .662 0c2.878.78 5.948.392 8.541-1.081a11.173 11.173 0 0 0 6.314-9.688c0-3.488-1.922-4.941-6.459-4.974-5.861 0-11.303-1.13-11.416-9.688a25.027 25.027 0 0 1 9.462-19.15l-.29-7.04a2.502 2.502 0 0 1 1.178-2.13z"/>
</svg>
